dist/img/svg/ic_slide-btn.svg

<svg width="38" height="38" viewBox="0 0 38 38"  xmlns="http://www.w3.org/2000/svg">
<circle cx="19" cy="19" r="18.5" />
<path d="M22.2868 18.6707L17.6615 13.1357C17.5099 12.9545 17.2646 12.9548 17.1133 13.1366C16.9621 13.3185 16.9625 13.6131 17.1141 13.7945L21.464 19L17.1139 24.2056C16.9624 24.387 16.962 24.6814 17.1131 24.8632C17.189 24.9544 17.2883 25 17.3877 25C17.4868 25 17.5857 24.9547 17.6614 24.8642L22.2868 19.3293C22.3597 19.2422 22.4007 19.1236 22.4007 19C22.4007 18.8765 22.3596 18.758 22.2868 18.6707Z" />
</svg>

<svg width="38" height="38" viewBox="0 0 38 38" xmlns="http://www.w3.org/2000/svg"><circle cx="19" cy="19" r="18.5"/><path d="M22.287 18.67l-4.625-5.534a.344.344 0 00-.549 0 .533.533 0 00.001.659L21.464 19l-4.35 5.206a.533.533 0 000 .657.357.357 0 00.274.137.353.353 0 00.273-.136l4.626-5.535A.516.516 0 0022.4 19a.517.517 0 00-.114-.33z"/></svg>
